X:171
T:Strathy Point* (h)
B:NFID.082b ("untitled highland")
171strath
S:JD
L:1/8
M:C
R:hornpipe
Q:280
K:A=G
A2eA BAef|g2dg BABG|~A2 eA Beea|gedB Aaga|
~A2 eA BAef|g2dg BABG|~A2 eA Beea|gedB cAAe||
a2ea caef|g2Bg dgB^g|a2ea cafa|gedB cAA^g|
a2ea caef|g2Bg dgB^g|(3agf (3gfe (3fed (3fga|\
(3gfe (3dcB cAAe||

%%%

